icons/square-chevron-up-outline.svg

<svg xmlns="http://www.w3.org/2000/svg" width="24" height="24" viewBox="0 0 24 24">
  <path d="M19,2 C20.6568542,2 22,3.34314575 22,5 L22,5 L22,19 C22,20.6568542 20.6568542,22 19,22 L19,22 L5,22 C3.34314575,22 2,20.6568542 2,19 L2,19 L2,5 C2,3.34314575 3.34314575,2 5,2 L5,2 Z M19,4 L5,4 C4.44771525,4 4,4.44771525 4,5 L4,5 L4,19 C4,19.5522847 4.44771525,20 5,20 L5,20 L19,20 C19.5522847,20 20,19.5522847 20,19 L20,19 L20,5 C20,4.44771525 19.5522847,4 19,4 L19,4 Z M12.6128994,9.20970461 L12.7071068,9.29289322 L16.7071068,13.2928932 C17.0976311,13.6834175 17.0976311,14.3165825 16.7071068,14.7071068 C16.3466228,15.0675907 15.7793918,15.0953203 15.3871006,14.7902954 L15.2928932,14.7071068 L12,11.415 L8.70710678,14.7071068 C8.34662282,15.0675907 7.77939176,15.0953203 7.38710056,14.7902954 L7.29289322,14.7071068 C6.93240926,14.3466228 6.90467972,13.7793918 7.20970461,13.3871006 L7.29289322,13.2928932 L11.2928932,9.29289322 C11.6533772,8.93240926 12.2206082,8.90467972 12.6128994,9.20970461 Z"/>
</svg>

<svg xmlns="http://www.w3.org/2000/svg" viewBox="0 0 24 24">
  <path d="M19 2a3 3 0 0 1 3 3v14a3 3 0 0 1-3 3H5a3 3 0 0 1-3-3V5a3 3 0 0 1 3-3zm0 2H5a1 1 0 0 0-1 1v14a1 1 0 0 0 1 1h14a1 1 0 0 0 1-1V5a1 1 0 0 0-1-1zm-6.39 5.21.1.08 4 4a1 1 0 0 1-1.32 1.5l-.1-.08L12 11.4l-3.3 3.3a1 1 0 0 1-1.31.08l-.1-.08a1 1 0 0 1-.08-1.32l.08-.1 4-4a1 1 0 0 1 1.32-.08z"/>
</svg>
